svgs/thin/person.svg

<svg xmlns="http://www.w3.org/2000/svg" viewBox="0 0 320 512"><!--! Font Awesome Pro 6.5.1 by @fontawesome - https://fontawesome.com License - https://fontawesome.com/license (Commercial License) Copyright 2023 Fonticons, Inc. --><path d="M160 96a40 40 0 1 0 0-80 40 40 0 1 0 0 80zm0-96a56 56 0 1 1 0 112A56 56 0 1 1 160 0zM141.1 144c-21.5 0-41.1 12.3-50.4 31.7L23.2 315.5c-1.9 4-6.7 5.6-10.7 3.7s-5.6-6.7-3.7-10.7L76.3 168.7c12-24.9 37.2-40.7 64.8-40.7h37.8c27.6 0 52.8 15.8 64.8 40.7l67.5 139.8c1.9 4 .3 8.8-3.7 10.7s-8.8 .3-10.7-3.7L229.3 175.7C220 156.3 200.4 144 178.9 144H141.1zM104 248V480c0 8.8 7.2 16 16 16s16-7.2 16-16V360c0-13.3 10.7-24 24-24s24 10.7 24 24V480c0 8.8 7.2 16 16 16s16-7.2 16-16V248c0-4.4 3.6-8 8-8s8 3.6 8 8V480c0 17.7-14.3 32-32 32s-32-14.3-32-32V360c0-4.4-3.6-8-8-8s-8 3.6-8 8V480c0 17.7-14.3 32-32 32s-32-14.3-32-32V248c0-4.4 3.6-8 8-8s8 3.6 8 8z"/></svg>

<svg xmlns="http://www.w3.org/2000/svg" viewBox="0 0 320 512"><!--! Font Awesome Pro 6.1.1 by @fontawesome - https://fontawesome.com License - https://fontawesome.com/license (Commercial License) Copyright 2022 Fonticons, Inc. --><path d="M103.1 56C103.1 25.07 129.1 0 159.1 0C190.9 0 215.1 25.07 215.1 56C215.1 86.93 190.9 112 159.1 112C129.1 112 103.1 86.93 103.1 56zM159.1 96C182.1 96 199.1 78.09 199.1 56C199.1 33.91 182.1 16 159.1 16C137.9 16 119.1 33.91 119.1 56C119.1 78.09 137.9 96 159.1 96zM141.1 144C119.6 144 100 156.3 90.67 175.7L23.21 315.5C21.29 319.5 16.5 321.1 12.53 319.2C8.546 317.3 6.877 312.5 8.797 308.5L76.26 168.7C88.27 143.8 113.5 128 141.1 128H178.9C206.5 128 231.7 143.8 243.7 168.7L311.2 308.5C313.1 312.5 311.5 317.3 307.5 319.2C303.5 321.1 298.7 319.5 296.8 315.5L229.3 175.7C219.1 156.3 200.4 144 178.9 144H141.1zM104 480C104 488.8 111.2 496 120 496C128.8 496 135.1 488.8 135.1 480V360C135.1 346.7 146.7 336 160 336C173.3 336 184 346.7 184 360V480C184 488.8 191.2 496 200 496C208.8 496 215.1 488.8 215.1 480V248C215.1 243.6 219.6 240 223.1 240C228.4 240 231.1 243.6 231.1 248V480C231.1 497.7 217.7 512 200 512C182.3 512 168 497.7 168 480V360C168 355.6 164.4 352 160 352C155.6 352 151.1 355.6 151.1 360V480C151.1 497.7 137.7 512 120 512C102.3 512 88 497.7 88 480V248C88 243.6 91.58 240 96 240C100.4 240 104 243.6 104 248V480z"/></svg>
